car-brake-alert.svg

<svg fill="currentColor" viewBox="0 0 24 24"><path d="M11 15h2v2h-2zm0-8h2v6h-2zm1-4a9 9 0 0 0-9 9 9 9 0 0 0 9 9 9 9 0 0 0 9-9 9 9 0 0 0-9-9m0 16c-3.86 0-7-3.14-7-7s3.14-7 7-7 7 3.14 7 7-3.14 7-7 7m8.5 1.5c2.16-2.19 3.5-5.19 3.5-8.5s-1.34-6.31-3.5-8.5l-1.08 1.08C21.32 6.5 22.5 9.11 22.5 12c0 2.9-1.18 5.5-3.08 7.42zM4.58 19.42C2.68 17.5 1.5 14.9 1.5 12c0-2.89 1.18-5.5 3.08-7.42L3.5 3.5C1.34 5.69 0 8.69 0 12s1.34 6.31 3.5 8.5z"/></svg>

<svg  viewBox="0 0 24 24" fill="currentColor"><path  d="M11,15H13V17H11V15M11,7H13V13H11V7M12,3A9,9 0 0,0 3,12A9,9 0 0,0 12,21A9,9 0 0,0 21,12A9,9 0 0,0 12,3M12,19C8.14,19 5,15.86 5,12C5,8.14 8.14,5 12,5C15.86,5 19,8.14 19,12C19,15.86 15.86,19 12,19M20.5,20.5C22.66,18.31 24,15.31 24,12C24,8.69 22.66,5.69 20.5,3.5L19.42,4.58C21.32,6.5 22.5,9.11 22.5,12C22.5,14.9 21.32,17.5 19.42,19.42L20.5,20.5M4.58,19.42C2.68,17.5 1.5,14.9 1.5,12C1.5,9.11 2.68,6.5 4.58,4.58L3.5,3.5C1.34,5.69 0,8.69 0,12C0,15.31 1.34,18.31 3.5,20.5L4.58,19.42Z"/></svg>
